!!! OTL: Berkowitz89
!!! Chapter: 1
!!! Section: I
!!! Page: 22
!!! Mode: 
!!! Encoder: DJB
**kern
*staff1
*I"Piano
=1-
*clefC3
*k[b-e-]
*B-:
*M4/4
4B-/
4f\
4d\
8e-\L
8f\J
=2
4g\
4f\
4r
4b-\
=3
4.a\
8g\
4f\
4b-\
=4
4a\
4g\
4f\
4r
=5
4d\
4B-/
4f\
8e-\L
8f\J
=6
4g\
4f\
4r
4e-\
=7
4d\
8c/L
8B-/J
4.c\
8d\
=8
2B-/
2r
==
*-
